X: 43580
T: Young Nedd Of The Hill
R: polka
M: 2/4
K: Bminor
|:FA|B>c de|cA F/G/A|B>c BA|FA/F/ EF/A/|
B>c de|cd ed/e/|fb ba|fg/f/ ed/e/|
fb- ba|fB- Bc|df f/e/d|cF- FA|
B>c de|c2 FA|Bf f/e/d/c|B2:|

